X:1
T:Won't You Sit With Me Awhile
M:2/2
L:1/8
K:G
F-G| A2 A2 A2B-A|G-AG-E D2A-B| c2 BA d2 B2| A6|A-B| c2B-A d2B-A| GAG-E D2 DE|\
 F2 D2 G2 E2| D6||
